X: 320
T: Maica
O: Romania
F: http://www.youtube.com/watch?v=HbFTQ2f-fX8
F: http://www.youtube.com/watch?v=_6VQrIg0zoA
M: 2/4
L: 1/8
Q: 1/4=220
K: C
%%MIDI program 110
%%MIDI gchord fz
|:"A"C4    |"D"D4   |"A"E4   |"D"F4  |\
  "A"E4    |"D"D4   |"A"C2B,2|A,4    |
  E2E2     |"D"D2C2 |D2E2    |D2C2   |\
  "A"B,2A,2|[1"E"E4-|E4      :|[2A,4-|A,4   |
|:"A"G,2A,2|A,2G,2  |C2D2    |"E"E4- |\
  E4       |D2F2    |E2D2    |D2C2-  |"C"C4-|C4 :|



